packages/foundations/assets/icons/functional/images/human/wc.svg

<svg xmlns="http://www.w3.org/2000/svg" width="32" height="32" fill="none"><path fill="#1A1C1F" fill-rule="evenodd" d="M7.858 2.108c-1.022.275-1.771.997-2.13 2.052-.138.406-.139 1.298-.001 1.707C6.161 7.15 7.301 8 8.589 8a2.995 2.995 0 0 0 2.998-2.96c.007-.85-.276-1.53-.888-2.135-.413-.409-.851-.669-1.341-.797-.385-.1-1.129-.1-1.5 0m14.549.003c-.741.199-1.522.805-1.855 1.439-.291.555-.364.848-.364 1.463 0 .405.028.642.099.854C20.73 7.177 21.853 8 23.199 8c.411 0 1.066-.175 1.433-.382.638-.361 1.211-1.097 1.425-1.831.131-.447.12-1.175-.024-1.627-.315-.99-1.15-1.8-2.115-2.052-.389-.101-1.13-.1-1.511.003M9.064 4.159c.717.366.703 1.409-.025 1.762-.657.317-1.412-.144-1.412-.863 0-.311.071-.506.256-.704a1.02 1.02 0 0 1 1.181-.195m14.493-.049c.345.13.604.5.612.87.013.646-.479 1.104-1.109 1.033-.914-.103-1.166-1.42-.353-1.849.221-.117.616-.142.85-.054M6.039 9.55c-.519.102-1.092.567-1.345 1.089-.141.291-1.765 8.906-1.768 9.374-.004.833.568 1.603 1.376 1.853.246.075.498.107.85.107h.501v3.602c0 3.927-.008 3.817.305 4.144.237.247.662.331 1.042.205.211-.069.489-.34.57-.554.038-.101.056-1.522.055-4.373-.001-4.034-.005-4.234-.102-4.447a.94.94 0 0 0-.328-.373c-.226-.15-.229-.15-1.258-.167-.654-.01-1.03-.036-1.03-.071 0-.054 1.47-8.125 1.521-8.352l.027-.12h2.159c1.367 0 2.159.019 2.159.052 0 .052 1.472 8.141 1.522 8.361l.027.12h-.963c-1.047 0-1.224.036-1.507.307-.305.293-.305.299-.305 4.703 0 2.676.019 4.098.057 4.234.073.265.379.6.619.679.481.159.984-.03 1.185-.446.11-.227.112-.284.112-3.862v-3.63l.627-.023c.474-.018.697-.051.92-.138.42-.165.813-.53 1.018-.946.309-.629.322-.513-.617-5.518-.484-2.581-.879-4.552-.94-4.689a1.97 1.97 0 0 0-1.3-1.095c-.265-.069-.7-.082-2.639-.077-1.277.003-2.425.026-2.55.051m13.056.029c-.795.213-1.363.874-1.47 1.71-.024.187.152 1.572.639 5.031.369 2.625.698 4.857.73 4.96.134.425.556.69 1.099.692l.334.001v3.624c0 2.43.018 3.672.056 3.773.07.184.294.427.488.528.209.11.649.095.893-.03.227-.116.38-.304.475-.583.081-.24.087-8.257.005-8.55-.134-.483-.536-.732-1.184-.734-.239-.001-.413-.023-.413-.054 0-.03-.252-1.911-.56-4.181a409 409 0 0 1-.56-4.213c0-.079.331-.086 3.75-.086h3.751l-.602 4.2a653 653 0 0 0-.604 4.266c-.001.047-.117.067-.389.068-.665.002-1.044.269-1.157.815-.041.196-.055 1.54-.044 4.36l.015 4.077.132.232a.983.983 0 0 0 1.708 0l.133-.232.015-3.662.015-3.662.242-.082c.55-.188 1.115-.802 1.242-1.351.118-.511 1.238-8.692 1.237-9.037a1.96 1.96 0 0 0-1.469-1.883c-.462-.12-8.059-.118-8.507.003"/></svg>

<svg width="32" height="32" viewBox="0 0 32 32" fill="none" xmlns="http://www.w3.org/2000/svg"><path d="M7.858 2.108 C 6.836 2.383,6.087 3.105,5.728 4.160 C 5.590 4.566,5.589 5.458,5.727 5.867 C 6.161 7.150,7.301 8.000,8.589 8.000 C 10.233 8.000,11.574 6.675,11.587 5.040 C 11.594 4.190,11.311 3.510,10.699 2.905 C 10.286 2.496,9.848 2.236,9.358 2.108 C 8.973 2.008,8.229 2.008,7.858 2.108 M22.407 2.111 C 21.666 2.310,20.885 2.916,20.552 3.550 C 20.261 4.105,20.188 4.398,20.188 5.013 C 20.188 5.418,20.216 5.655,20.287 5.867 C 20.730 7.177,21.853 8.000,23.199 8.000 C 23.610 8.000,24.265 7.825,24.632 7.618 C 25.270 7.257,25.843 6.521,26.057 5.787 C 26.188 5.340,26.177 4.612,26.033 4.160 C 25.718 3.170,24.883 2.360,23.918 2.108 C 23.529 2.007,22.788 2.008,22.407 2.111 M9.064 4.159 C 9.781 4.525,9.767 5.568,9.039 5.921 C 8.382 6.238,7.627 5.777,7.627 5.058 C 7.627 4.747,7.698 4.552,7.883 4.354 C 8.173 4.044,8.676 3.961,9.064 4.159 M23.557 4.110 C 23.902 4.240,24.161 4.610,24.169 4.980 C 24.182 5.626,23.690 6.084,23.060 6.013 C 22.146 5.910,21.894 4.593,22.707 4.164 C 22.928 4.047,23.323 4.022,23.557 4.110 M6.039 9.550 C 5.520 9.652,4.947 10.117,4.694 10.639 C 4.553 10.930,2.929 19.545,2.926 20.013 C 2.922 20.846,3.494 21.616,4.302 21.866 C 4.548 21.941,4.800 21.973,5.152 21.973 L 5.653 21.973 5.653 25.575 C 5.653 29.502,5.645 29.392,5.958 29.719 C 6.195 29.966,6.620 30.050,7.000 29.924 C 7.211 29.855,7.489 29.584,7.570 29.370 C 7.608 29.269,7.626 27.848,7.625 24.997 C 7.624 20.963,7.620 20.763,7.523 20.550 C 7.459 20.410,7.337 20.271,7.195 20.177 C 6.969 20.027,6.966 20.027,5.937 20.010 C 5.283 20.000,4.907 19.974,4.907 19.939 C 4.907 19.885,6.377 11.814,6.428 11.587 L 6.455 11.467 8.614 11.467 C 9.981 11.467,10.773 11.486,10.773 11.519 C 10.773 11.571,12.245 19.660,12.295 19.880 L 12.322 20.000 11.359 20.000 C 10.312 20.000,10.135 20.036,9.852 20.307 C 9.547 20.600,9.547 20.606,9.547 25.010 C 9.547 27.686,9.566 29.108,9.604 29.244 C 9.677 29.509,9.983 29.844,10.223 29.923 C 10.704 30.082,11.207 29.893,11.408 29.477 C 11.518 29.250,11.520 29.193,11.520 25.615 L 11.520 21.985 12.147 21.962 C 12.621 21.944,12.844 21.911,13.067 21.824 C 13.487 21.659,13.880 21.294,14.085 20.878 C 14.394 20.249,14.407 20.365,13.468 15.360 C 12.984 12.779,12.589 10.808,12.528 10.671 C 12.294 10.138,11.805 9.726,11.228 9.576 C 10.963 9.507,10.528 9.494,8.589 9.499 C 7.312 9.502,6.164 9.525,6.039 9.550 M19.095 9.579 C 18.300 9.792,17.732 10.453,17.625 11.289 C 17.601 11.476,17.777 12.861,18.264 16.320 C 18.633 18.945,18.962 21.177,18.994 21.280 C 19.128 21.705,19.550 21.970,20.093 21.972 L 20.427 21.973 20.427 25.597 C 20.427 28.027,20.445 29.269,20.483 29.370 C 20.553 29.554,20.777 29.797,20.971 29.898 C 21.180 30.008,21.620 29.993,21.864 29.868 C 22.091 29.752,22.244 29.564,22.339 29.285 C 22.420 29.045,22.426 21.028,22.344 20.735 C 22.210 20.252,21.808 20.003,21.160 20.001 C 20.921 20.000,20.747 19.978,20.747 19.947 C 20.747 19.917,20.495 18.036,20.187 15.766 C 19.879 13.496,19.627 11.600,19.627 11.553 C 19.627 11.474,19.958 11.467,23.377 11.467 L 27.128 11.467 26.526 15.667 C 26.195 17.977,25.923 19.897,25.922 19.933 C 25.921 19.980,25.805 20.000,25.533 20.001 C 24.868 20.003,24.489 20.270,24.376 20.816 C 24.335 21.012,24.321 22.356,24.332 25.176 L 24.347 29.253 24.479 29.485 C 24.858 30.147,25.808 30.147,26.187 29.485 L 26.320 29.253 26.335 25.591 L 26.350 21.929 26.592 21.847 C 27.142 21.659,27.707 21.045,27.834 20.496 C 27.952 19.985,29.072 11.804,29.071 11.459 C 29.068 10.575,28.463 9.800,27.602 9.576 C 27.140 9.456,19.543 9.458,19.095 9.579 " fill="#1A1C1F" stroke="none" fill-rule="evenodd"></path></svg>
